X: 1
T:Back of the Change, The
R:reel
N:One of the few tunes I've learnt from written music
B:Roche's Collection
Z:id:hn-reel-265
M:C|
K:Ddor
A2AG Addc|A2AG EccG|A2AG Addc|1 AcGA EDEG:|2 AcGE EDD2||
ed~d2 ec~c2|ed~d2 abag|1 ed~d2 edcA|GAcd edcd:|2 egde cdcA|GAcd e2dc||
